X:27
T:Paddy Carthy's Reel
M:C
K:EDor
L:1/8
E2 BE GABG|E2 BG FDAF|E2 BE GABe|1 dBBA BEED :|2 dBBA BE E2 |
efge fgaf|gfed edBd|efge fgaf|gfed Be e2|
efge fgaf|gfed edBd|bgaf gefd|edBA GE E2 |>|
